assets/icons/qvision/new_releases.svg

<svg width="24" height="24" viewBox="0 0 24 24" fill="none" xmlns="http://www.w3.org/2000/svg">
<g clip-path="url(#clip0_147_1522)">
<path d="M23 12L20.56 9.22001L20.9 5.54001L17.29 4.72001L15.4 1.54001L12 3.00001L8.6 1.54001L6.71 4.72001L3.1 5.53001L3.44 9.21001L1 12L3.44 14.78L3.1 18.47L6.71 19.29L8.6 22.47L12 21L15.4 22.46L17.29 19.28L20.9 18.46L20.56 14.78L23 12ZM13 17H11V15H13V17ZM13 13H11V7.00001H13V13Z" fill="#323232"/>
</g>
<defs>
<clipPath id="clip0_147_1522">
<rect width="24" height="24" fill="white"/>
</clipPath>
</defs>
</svg>

<svg xmlns="http://www.w3.org/2000/svg" height="24" viewBox="0 0 24 24" width="24"><path d="M0 0h24v24H0z" fill="none"/><path d="m23 12-2.44-2.78.34-3.68-3.61-.82-1.89-3.18L12 3 8.6 1.54 6.71 4.72l-3.61.81.34 3.68L1 12l2.44 2.78-.34 3.69 3.61.82 1.89 3.18L12 21l3.4 1.46 1.89-3.18 3.61-.82-.34-3.68L23 12zm-10 5h-2v-2h2v2zm0-4h-2V7h2v6z"/></svg>
